!!!!SEGMENT: pl-kk--kk-i-1--056-002_anonim--feria-tertia-sanctus.krn
!!!cenid: 15xx:780
!!!COM: Anonim
!!!COM-rismID: pe30004985
!!!CDT:
!!!CNT:
!!!OPR: Feria tertia
!!!OTL: Sanctus
!!!OMV: 002
!!!PDT:
!!!AGN:
!!!YEC: Copyright 2022 Narodowy Instytut Fryderyka Chopina (https://polishscores.org)
!!!YEM: License CC-BY-4.0 (https://creativecommons.org/licenses/by/4.0)
!!!SMS-siglum: PL-Kk
!!!SMS-shelfmark: Kk.I.1
!!!SMS-shelfwork: 056-002 M
!!!SMS-variant:
!!!SMS-altvar:
!!!NIFC-rismSourceID: 300257954
!!!NIFC-rismChildID: 300258010
!!!NIFC-islandoraID: pl-kk:1
!!!URL-pdf-islandora: https://repozytorium.nifc.pl/islandora/object/pl-kk%3A1/datastream/PDF/view
!!!URL-scan: https://polish.musicsources.pl/pl/lokalizacje/galeria/rekopisy/5736 @EN{Scan on Polish Music Sources Website} @PL{Skany w portalu Dziedzictwo Muzyki Polskiej w otwartym dostępie}
!!!IIIF: https://repozytorium.nifc.pl/islandora/object/pl-kk%3A1/datastream/IIIF/view
!!!ONB-nifc: UWAGA: Cantus (s. 173v-176v, skan 0176-0179), Altus (s. 170r-173r, skan 0363-0366), Tenor (s. 146v-148v, skan 0537-0539), Bassus (s. 159v-162r, skan 0722-0724). Części Mszy: 1. Kyrie, 2. Sanctus, 3. Agnus Dei
!!!AIN: 1 alto 1 bass 1 soprn 1 tenor
!!!key: F:lyd
**kern	**text	**kern	**text	**kern	**text	**kern	**text
*part4	*	*part3	*	*part2	*	*part1	*
*staff4	*	*staff3	*	*staff2	*	*staff1	*
*I"BASSVS	*	*I"TENOR	*	*I"ALTVS	*	*I"CANTVS	*
*I'B	*	*I'T	*	*I'A	*	*I'S	*
*Ibass	*	*Itenor	*	*Ialto	*	*Isoprn	*
*ICvox	*	*ICvox	*	*ICvox	*	*ICvox	*
*clefF4	*	*clefC4	*	*clefC3	*	*clefC2	*
*k[b-]	*	*k[b-]	*	*k[b-]	*	*k[b-]	*
*F:lyd	*	*F:lyd	*	*F:lyd	*	*F:lyd	*
*M2/1	*	*M2/1	*	*M2/1	*	*M2/1	*
*met(C|)	*	*met(C|)	*	*met(C|)	*	*met(C|)	*
=1-	=1-	=1-	=1-	=1-	=1-	=1-	=1-
*xywh-#723:1581,532,4270,1088	*	*xywh-#537:5912,2238,4646,1010	*	*xywh-#364:5985,3121,4345,998	*	*xywh-#177:1272,3114,4618,1117	*
*stria6	*	*stria6	*	*stria6	*	*stria6	*
!	!	!	!	!LO:TX:t=P:problem=metrum przed kluczem	!	!LO:TX:t=P::problem=brak metrum; znaki&colon; jeszcze BB-	!
2C/	San-	0c	San-	2e\	San-	4cc\	San-
.	.	.	.	.	.	4b-\	.
2.F\	.	.	.	1f	.	4a\	.
.	.	.	.	.	.	4g\	.
.	.	.	.	.	.	4a\	.
4G\	.	.	.	.	.	4b-\	.
2A\	.	.	.	4e\	.	1cc\	.
.	.	.	.	4f\	.	.	.
=2-	=2-	=2-	=2-	=2-	=2-	=2-	=2-
*	*	*lig	*	*	*	*	*
1G	.	1d	.	2.g\	.	.	.
!	!	!	!	!	!	!LO:N:acc=#	!
.	.	.	.	.	.	2bni\	-ctus.
.	.	.	.	4f\	.	.	.
2C/	-ctus	1c	.	2e\	-ctus	2cc\	.
*	*ij	*	*	*	*	*	*
2.F\	San-	.	.	2f\	.	1a\	.
*	*	*Xlig	*	*	*	*	*
=3-	=3-	=3-	=3-	=3-	=3-	=3-	=3-
*	*	*lig	*	*	*ij	*	*
.	.	1f	.	2.c/	San-	.	.
4G\	.	.	.	.	.	.	.
4A\	.	.	.	.	.	2a\	.
4B-\	.	.	.	4d\	.	.	.
1c	.	1e	.	4e\	.	2.g\	.
.	.	.	.	4f\	.	.	.
.	.	.	.	1g\	.	.	.
.	.	.	.	.	.	4a\	.
*	*	*Xlig	*	*	*	*	*
=4-	=4-	=4-	=4-	=4-	=4-	=4-	=4-
2G\	.	0g	.	.	.	4b-y\	.
.	.	.	.	.	.	4g\	.
2.G\	-ctus	.	.	2d/	-ctus	4b-\	.
*	*Xij	*	*	*	*	*	*
.	.	.	.	.	.	4cc\	.
.	.	.	.	4B-/	San-	2.dd\	.
4A\	.	.	.	4c/	.	.	.
4B-\	.	.	.	4d\	.	.	.
4c\	.	.	.	4e\	.	8cc\L	.
.	.	.	.	.	.	8b-\J	.
=5-	=5-	=5-	=5-	=5-	=5-	=5-	=5-
2d\	.	1f	.	4f\	.	4a\	.
.	.	.	.	4g\	.	4b-\	.
2.A\	.	.	.	2.a\	.	2.cc\	.
.	.	1e	.	.	.	.	.
4B-\	.	.	.	8g\L	.	8b-\L	.
.	.	.	.	8f\J	.	8a\J	.
2c\	.	.	.	4e\	.	4g\	.
.	.	.	.	4f\	.	4a\	.
=6-	=6-	=6-	=6-	=6-	=6-	=6-	=6-
2G\	.	0d	.	2g\	.	2b-\	.
2F\	.	.	.	2a\	.	2.cc\	.
1G	.	.	.	1g	.	.	.
!	!	!	!	!	!	!LO:N:acc=#	!
.	.	.	.	.	.	8bni\L	.
.	.	.	.	.	.	8a\J	.
.	.	.	.	.	.	2b\	.
=7-	=7-	=7-	=7-	=7-	=7-	=7-	=7-
0Cl	.	0cl\	-ctus	0el\	-ctus	0ccl\	.
*	*	*	*	*	*Xij	*	*
!	!	!	!	!LO:PB:g=original	!	!LO:PB:g=original	!
*	*	*	*	*xywh-#365:1549,630,4208,937	*	*xywh-#177:6023,596,4448,1042	*
*custos:F	*	*	*	*	*	*	*
=8||-	=8||-	=8||-	=8||-	=8||-	=8||-	=8||-	=8||-
*	*	*lig	*	*	*	*	*
!LO:LB:g=original	!	!	!	!	!	!	!
*xywh-#723:1605,1496,4303,775	*	*	*	*	*	*	*
2.F\	San-	1f	San-	1a	San-	4f\	San-
.	.	.	.	.	.	4g\	.
.	.	.	.	.	.	4a\	.
4G\	.	.	.	.	.	4b-y\	.
4A\	.	1e	.	2a\	-ctus	2.cc\	-ctus
4B-\	.	.	.	.	.	.	.
2.c\	.	.	.	4g\	.	.	.
.	.	.	.	4f\	.	8b-\L	.
.	.	.	.	.	.	8a\J	.
*	*	*Xlig	*	*	*	*	*
=9-	=9-	=9-	=9-	=9-	=9-	=9-	=9-
*	*	*lig	*	*	*ij	*	*
.	.	1c	.	4e\	San-	2g\	.
4B-\	.	.	.	4d\	.	.	.
2A\	.	.	.	4e\	.	1cc	.
.	.	.	.	4f\	.	.	.
1G	.	1d	.	2.g\	.	.	.
.	.	.	.	.	.	2b-\	.
.	.	.	.	4f\	.	.	.
*	*	*Xlig	*	*	*	*	*
=10-	=10-	=10-	=10-	=10-	=10-	=10-	=10-
2C/	-ctus	1c	.	2e\	.	2cc\	.
1F	.	.	.	2f\	.	2.a\	.
*	*	*lig	*	*	*	*	*
.	.	1A	.	2c/	.	.	.
.	.	.	.	.	.	4g\	.
2D/	.	.	.	2d/	.	2f\	.
=11-	=11-	=11-	=11-	=11-	=11-	=11-	=11-
2.C/	.	1c	.	1G	-ctus	2e/	.
*	*	*	*	*	*Xij	*	*
.	.	.	.	.	.	1cc	.
4D/	.	.	.	.	.	.	.
*	*	*Xlig	*	*	*	*	*
*	*	*custos:c	*	*	*	*	*
!	!	!LO:LB:g=original	!	!	!	!	!
*	*	*xywh-#537:6030,3125,4381,807	*	*	*	*	*
2E/	.	1c	.	2g\	.	.	.
1F\	.	.	.	2f\	.	1a\	.
=12-	=12-	=12-	=12-	=12-	=12-	=12-	=12-
*	*	*lig	*	*	*	*	*
.	.	1A	.	2c/	.	.	.
1D	.	.	.	2d/	.	2f\	.
.	.	1F	.	2.d\	San-	2a\	.
2.BB-/	.	.	.	.	.	2.b-\	.
.	.	.	.	4e\	.	.	.
*	*	*Xlig	*	*	*	*	*
=13-	=13-	=13-	=13-	=13-	=13-	=13-	=13-
.	.	1B-	.	2.f\	.	.	.
4C/	.	.	.	.	.	8a\L	.
.	.	.	.	.	.	8g\J	.
4D/	.	.	.	.	.	4f/	.
4E/	.	.	.	8e\L	.	4g/	.
.	.	.	.	8d\J	.	.	.
1F	.	1A	.	2c/	.	2.a\	.
.	.	.	.	2.f\	.	.	.
.	.	.	.	.	.	4b-\	.
=14-	=14-	=14-	=14-	=14-	=14-	=14-	=14-
1C	.	1G	-ctus.	.	.	1cc	.
.	.	.	.	8e\L	.	.	.
.	.	.	.	8d\J	.	.	.
.	.	.	.	2e\	.	.	.
1Fl\	.	1Fl/	.	1fl\	-ctus.	1al\	.
!	!	!	!	!	!	!LO:LB:g=original	!
=15||-	=15||-	=15||-	=15||-	=15||-	=15||-	=15||-	=15||-
*	*	*	*	*	*	*xywh-#177:6057,1570,4414,906	*
*	*	*lig	*	*	*	*	*
!LO:LB:g=original	!	!	!	!LO:LB:g=original	!	!	!
*xywh-#723:1663,2246,4180,906	*	*	*	*xywh-#365:1584,1451,4174,923	*	*	*
1.F	San-	1F	San-	2.a\	San-	2.cc\	San-
.	.	.	.	4g\	.	4b-\	.
.	.	1c	.	4f\	.	2a\	.
.	.	.	.	8e\L	.	.	.
.	.	.	.	8f\J	.	.	.
2E/	.	.	.	4g\	.	2.cc\	.
.	.	.	.	4e\	.	.	.
*	*	*Xlig	*	*	*	*	*
=16-	=16-	=16-	=16-	=16-	=16-	=16-	=16-
*	*	*lig	*	*	*	*	*
2D/	.	1d	.	2f\	.	.	.
!	!	!	!	!	!	!LO:N:acc=#	!
.	.	.	.	.	.	8bni\L	.
.	.	.	.	.	.	8a\J	.
2G\	.	.	.	4g\	.	2b\	-ctus
.	.	.	.	4f\	.	.	.
2C/	-ctus	1c	.	2e\	-ctus.	2cc\	.
2.F\	.	.	.	2f\	.	1a\	.
*	*	*Xlig	*	*	*	*	*
=17-	=17-	=17-	=17-	=17-	=17-	=17-	=17-
*	*	*lig	*	*	*ij	*	*
.	.	1f	.	2.c/	San-	.	.
4G\	.	.	.	.	.	.	.
4A\	.	.	.	.	.	2a\	.
4B-\	.	.	.	4d\	.	.	.
1c	.	1e	.	4e\	.	2.g\	.
.	.	.	.	4f\	.	.	.
.	.	.	.	1g\	.	.	.
.	.	.	.	.	.	4a\	.
*	*	*Xlig	*	*	*	*	*
=18-	=18-	=18-	=18-	=18-	=18-	=18-	=18-
2G\	.	0g	.	.	.	4b-y\	.
.	.	.	.	.	.	4g\	.
2.G\	.	.	.	2d\	.	4b-\	.
.	.	.	.	.	.	4cc\	.
.	.	.	.	4B-/	.	2.dd\	.
4A\	.	.	.	4c/	.	.	.
4B-\	.	.	.	4d/	.	.	.
4c\	.	.	.	4e/	.	8cc\L	.
.	.	.	.	.	.	8b-\J	.
=19-	=19-	=19-	=19-	=19-	=19-	=19-	=19-
2d\	.	1f	.	4f\	.	4a\	.
.	.	.	.	4g\	.	4b-\	.
2.A\	.	.	.	2.a\	.	2.cc\	.
.	.	1e	.	.	.	.	.
4B-\	.	.	.	8g\L	.	8b-\L	.
.	.	.	.	8f\J	.	8a\J	.
2c\	.	.	.	4e\	.	4g\	.
.	.	.	.	4f\	.	4a\	.
=20-	=20-	=20-	=20-	=20-	=20-	=20-	=20-
2G\	.	0d	-ctus	2g\	.	2b-\	.
2F\	.	.	.	2a\	.	2.cc\	.
1G	.	.	.	1g	.	.	.
!	!	!	!	!	!	!LO:N:acc=#	!
.	.	.	.	.	.	8bni\L	.
.	.	.	.	.	.	8a\J	.
.	.	.	.	.	.	2b\	.
=21-	=21-	=21-	=21-	=21-	=21-	=21-	=21-
2C/	.	1c	.	2e\	-ctus	2cc\	.
*	*	*	*	*custos:g	*Xij	*custos:cc	*
!	!	!	!	!LO:LB:g=original	!	!LO:LB:g=original	!
*	*	*	*	*xywh-#365:1597,2334,4236,903	*	*xywh-#177:6037,2354,4312,926	*
1c	Do-	.	.	1g	D(o-	1cc	Do-
.	.	1e	Do-	.	.	.	.
2c\	-mi-	.	.	2g\	-mi)-	2cc\	-mi-
*	*	*custos:f	*	*	*	*	*
=22-	=22-	=22-	=22-	=22-	=22-	=22-	=22-
!	!	!LO:PB:g=original	!	!	!	!	!
*	*	*xywh-#538:1480,594,4300,959	*	*	*	*	*
1B-	-nus	1f	.	2d\	-nus	1dd	-nus
.	.	.	.	1d	.	.	.
!	!	!	!	!	!	!LO:N:acc=#	!
!	!	!	!	!	!	!LO:TX:t=P:problem=# below	!
1G	De-	1g	.	.	.	1bn	De-
.	.	.	.	1g\	.	.	.
*custos:c	*	*	*	*	*	*	*
=23-	=23-	=23-	=23-	=23-	=23-	=23-	=23-
!LO:LB:g=original	!	!	!	!	!	!	!
*xywh-#723:1713,3096,4180,923	*	*	*	*	*	*	*
1c	-us	1e	-mi-	.	.	1cc	-us
.	.	.	.	2g\	.	.	.
*	*	*lig	*	*	*	*	*
2.F\	sab-	1f	-nus	1.a	De-	0cc	sab-
4G\	-ba-	.	.	.	.	.	.
=24-	=24-	=24-	=24-	=24-	=24-	=24-	=24-
4A\	-oth	1e	.	.	.	.	.
4B-\	.	.	.	.	.	.	.
1c	.	.	.	2g\	-us	.	.
*	*	*Xlig	*	*	*	*	*
*	*	*lig	*	*	*	*	*
.	.	1d	De-	2f#Xi\	ſab-	1dd	-ba-
!LO:N:acc=#	!	!	!	!	!	!	!
2Bni\	.	.	.	2g\	-ba-	.	.
=25-	=25-	=25-	=25-	=25-	=25-	=25-	=25-
2c\	.	1c	.	2e\	-oth.	2g\	-oth
*	*	*	*	*	*ij	*	*
2.F\	D(o-	.	.	2.fny\	D(o-	2.a\	D(o-
*	*	*Xlig	*	*	*	*	*
.	.	1c	-us	.	.	.	.
!	!	!	!	!	!	!LO:TX:t=P:poprawki:problem= korekta wysokości tej i następnej nuty, brakuje tu jednej nuty, ale łatwo się domyślić co tu miało być	!
4F\	-mi)-	.	.	4f\	-mi)-	4a\	-mi)-
2F\	-nus	.	.	2f\	-nus	2a\yy	-nus
=26-	=26-	=26-	=26-	=26-	=26-	=26-	=26-
*	*	*lig	*	*	*	*	*
!	!	!	!	!	!	!LO:TX:t=P:problem=korekta wysokości	!
1B-y	De-	1d	sab-	1f	De-	1b-y	De-
2F/	-(us)	1c	.	1f	-us	2a\	-us
1F\	ſab-	.	.	.	.	1a\	.
*	*	*Xlig	*	*	*	*	*
=27-	=27-	=27-	=27-	=27-	=27-	=27-	=27-
*	*	*lig	*	*	*	*	*
.	.	1A	.	2c/	ſab-	.	.
2D/	-ba-	.	.	2d/	.	2f\	.
2.C/	-oth	1c	.	1G	.	2e/	.
.	.	.	.	.	.	1cc\	.
4D/	.	.	.	.	.	.	.
*	*	*Xlig	*	*	*	*	*
=28-	=28-	=28-	=28-	=28-	=28-	=28-	=28-
2E/	.	1c	.	2g\	.	.	.
!LO:N:vis=1.	!	!	!	!	!	!	!
1F	.	.	.	2f\	.	1a	.
*	*	*lig	*	*	*	*	*
.	.	1A	.	2c/	.	.	.
1D/	.	.	.	2d/	.	2f\	ſab-
=29-	=29-	=29-	=29-	=29-	=29-	=29-	=29-
.	.	1F	.	2.d\	-ba-	2a\	.
2.BB-/	.	.	.	.	.	2.b-\	.
.	.	.	.	4e\	.	.	.
*	*	*Xlig	*	*	*	*	*
*	*	*lig	*	*	*	*	*
.	.	1B-	.	2.f\	.	.	.
4C/	.	.	.	.	.	8a\L	.
.	.	.	.	.	.	8g\J	.
4D/	.	.	.	.	.	4f\	.
4E/	.	.	.	8e\L	.	4g\	.
.	.	.	.	8d\J	.	.	.
*	*	*	*	*custos:c	*	*	*
=30-	=30-	=30-	=30-	=30-	=30-	=30-	=30-
!	!	!	!	!LO:LB:g=original	!	!	!
*	*	*	*	*xywh-#365:1611,3087,4208,923	*	*	*
1F	.	1A	.	2c/	.	2.a\	.
.	.	.	.	1f	.	.	.
.	.	.	.	.	.	4b-\	.
*	*	*Xlig	*	*	*	*	*
0C	.	0G	-ba-	.	.	0cc	-ba-
.	.	.	.	4e\	.	.	.
.	.	.	.	4d\	.	.	.
=31-	=31-	=31-	=31-	=31-	=31-	=31-	=31-
.	.	.	.	1e	.	.	.
1Fl\	.	1Fl/	-oth.	1fl\	-oth.	1al\	-oth.
*	*	*	*	*	*Xij	*	*
!LO:PB:g=original	!	!	!	!	!	!LO:LB:g=original	!
=32||-	=32||-	=32||-	=32||-	=32||-	=32||-	=32||-	=32||-
*xywh-#723:5954,510,4509,1063	*	*	*	*	*	*xywh-#177:6125,3178,4285,892	*
!	!	!LO:TX:t=P:problem=usunięty klucz i znak	!	!	!	!	!
1.F	Ple-	1c	Ple-	0f	Ple-	1.a	Ple-
.	.	1c	-ni	.	.	.	.
2F\	-ni	.	.	.	.	2a\	-ni
*	*	*custos:A	*	*	*	*	*
=33-	=33-	=33-	=33-	=33-	=33-	=33-	=33-
!	!	!LO:LB:g=original	!	!	!	!	!
*	*	*xywh-#538:1585,1456,4154,861	*	*	*	*	*
1F	sunt	1A	sunt	1f	-ni	1cc	sunt
1C	cae-	1G	.	1e	sunt	1.cc	cae-
=34-	=34-	=34-	=34-	=34-	=34-	=34-	=34-
1F	-li	1A	cae-	1c	cae-	.	.
.	.	.	.	.	.	1a	-li
1D	et	1F	-li	1d	-li	.	.
.	.	.	.	.	.	2f\	et
=35-	=35-	=35-	=35-	=35-	=35-	=35-	=35-
*	*	*lig	*	*	*	*	*
2.AA/	ter-	1A	et	1c	et	2e/	ter-
.	.	.	.	.	.	1f	.
4BB-/	-ra	.	.	.	.	.	.
0C	.	1G	.	1c	ter-	.	.
.	.	.	.	.	.	4e/	.
.	.	.	.	.	.	4d/	.
*	*	*Xlig	*	*	*	*	*
=36-	=36-	=36-	=36-	=36-	=36-	=36-	=36-
.	.	1c	.	1G	-ra	1e	.
2F\	.	1c	ter-	4A/	.	2f/	-ra
.	.	.	.	4B-/	et	.	.
2A\	et	.	.	1c/	.	2e/	et
=37-	=37-	=37-	=37-	=37-	=37-	=37-	=37-
*	*	*lig	*	*	*	*	*
1G	ter-	1d	.	.	.	1g	ter-
!	!	!	!	!LO:N:acc=#	!	!	!
!	!	!	!	!LO:TX:t=P:problem=# below	!	!	!
.	.	.	.	2Bn/	ter-	.	.
1C	-ra	1c	.	2c/	-ra	1g	-ra
.	.	.	.	2e\	et	.	.
*	*	*Xlig	*	*	*	*	*
=38-	=38-	=38-	=38-	=38-	=38-	=38-	=38-
1.F	gl(o-	1c	-ra	2f\	ter-	0a	gl(o-
.	.	.	.	2f\	-ra	.	.
.	.	1f	glo-	2.c/	glo-	.	.
2F\	-ri)-	.	.	.	.	.	.
.	.	.	.	4d\	.	.	.
=39-	=39-	=39-	=39-	=39-	=39-	=39-	=39-
2c\	-a	1e	-ri-	4e\	.	2g/	-ri)-
.	.	.	.	4f\	.	.	.
*	*	*	*	*custos:g	*	*	*
!	!	!	!	!LO:PB:g=original	!	!	!
*	*	*	*	*xywh-#365:5961,533,4373,1060	*	*	*
2c\	tu-	.	.	1g	.	2g/	-a
2G\	-a	0g	-a	.	.	0b-	tu-
2.G\	tu-	.	.	2d\	-ri-	.	.
=40-	=40-	=40-	=40-	=40-	=40-	=40-	=40-
.	.	.	.	2.d\	-a	.	.
4A\	.	.	.	.	.	.	.
4B-\	.	.	.	.	.	.	.
4c\	.	.	.	4e\	.	.	.
*	*	*lig	*	*	*	*	*
1d	.	1f	tu-	2f\	tu-	1a	-a
.	.	.	.	2d\	-a	.	.
=41-	=41-	=41-	=41-	=41-	=41-	=41-	=41-
2c\	-a,	1e	.	2g\	gl(o-	1cc	gl(o-
2.A\	glo-	.	.	2a\	-ri)-	.	.
*	*	*Xlig	*	*	*	*	*
*	*	*lig	*	*	*	*	*
.	.	1c	.	2e\	-a	2a\	-ri)-
4A\	-ri-	.	.	.	.	.	.
*custos:F	*	*	*	*	*	*	*
!LO:LB:g=original	!	!	!	!	!	!	!
*xywh-#723:6054,1434,4229,857	*	*	*	*	*	*	*
1F\	-a	.	.	2f\	tu-	1cc\	-a
=42-	=42-	=42-	=42-	=42-	=42-	=42-	=42-
.	.	1d	.	2a\	-a	.	.
!	!	!	!	!	!	!LO:N:acc=#	!
2G\	tu-	.	.	2g\	.	2bni\	tu-
*	*	*Xlig	*	*	*	*	*
*	*	*lig	*	*	*	*	*
2C/	-a.	1c	.	2e\	gl(o-	2cc\	-a.
*	*	*	*	*	*	*custos:a	*
!	!	!	!	!	!	!LO:PB:g=original	!
*	*	*	*	*	*	*xywh-#178:1368,787,4414,940	*
1F\	.	.	.	2f\	-ri)-	2.a\	.
=43-	=43-	=43-	=43-	=43-	=43-	=43-	=43-
.	.	1A	.	2c/	-a	.	.
.	.	.	.	.	.	4a\	.
1D	.	.	.	2d\	tu-	1f	.
*	*	*Xlig	*	*	*	*	*
*	*	*lig	*	*	*	*	*
.	.	1F	.	2A/	-a	.	.
2.BB-/	.	.	.	1d/	.	2.b-\	.
=44-	=44-	=44-	=44-	=44-	=44-	=44-	=44-
.	.	1B-	.	.	.	.	.
4C/	.	.	.	.	.	8a\L	.
.	.	.	.	.	.	8g\J	.
4D/	.	.	.	2d\	.	4f\	.
4E/	.	.	.	.	.	4g\	.
*	*	*Xlig	*	*	*	*	*
1F	.	1A	.	2.c/	.	2a\	.
.	.	.	.	.	.	2.cc\	gl(o-
.	.	.	.	4d\	.	.	.
=45-	=45-	=45-	=45-	=45-	=45-	=45-	=45-
2C/	.	0G	.	2e\	.	.	.
.	.	.	.	.	.	4cc\	-ri)-
2BB-/	.	.	.	1f	.	2dd\	-a
1C	.	.	.	.	.	1cc	tu-
.	.	.	.	2e\	.	.	.
=46-	=46-	=46-	=46-	=46-	=46-	=46-	=46-
0Fl\	.	0F;l/	-a.	0fl	.	0al\	-a.
!	!	!	!	!	!	!LO:LB:g=original	!
=47||-	=47||-	=47||-	=47||-	=47||-	=47||-	=47||-	=47||-
!	!	!LO:LB:g=original	!	!LO:LB:g=original	!	!	!
*	*	*xywh-#538:1577,2220,4170,918	*	*xywh-#365:6002,1532,4256,821	*	*	*
1C	O-	0c	O-	1c	O-	1g	O-
0F	-san-	.	.	2f\	-san-	2.a\	-ſan-
.	.	.	.	2f\	-na	.	.
.	.	.	.	.	.	4b-\	.
=48-	=48-	=48-	=48-	=48-	=48-	=48-	=48-
.	.	1A	-san-	2c/	in	1.cc	-na
.	.	.	.	2f\	ex-	.	.
2C/	-na	1G	-na	2e\	-cel-	.	.
2G\	in	.	.	2d\	-sis	2b-\	in
=49-	=49-	=49-	=49-	=49-	=49-	=49-	=49-
2F\	ex-	1c	in	2f\	in	2a\	.
2A\	-cel-	.	.	4e\	ex-	1cc	ex-
.	.	.	.	4f\	-cel-	.	.
1G	-sis	1d	ex-	2g\	-sis,	.	.
.	.	.	.	2g\	.	2b-\	-cel-
=50-	=50-	=50-	=50-	=50-	=50-	=50-	=50-
*	*	*lig	*	*	*	*	*
2C/	.	1e	-cel-	1g	o-	1cc	-sis
*custos:c	*	*	*	*	*	*	*
!LO:LB:g=original	!	!	!	!	!	!	!
*xywh-#723:6054,2291,4369,824	*	*	*	*	*	*	*
1c	.	.	.	.	.	.	.
.	.	1c	.	1e	-ſan-	2r	.
1A\	.	.	.	.	.	1cc\	.
*	*	*Xlig	*	*	*	*	*
=51-	=51-	=51-	=51-	=51-	=51-	=51-	=51-
.	.	1e	.	1.c	-na	.	.
*	*	*	*	*	*	*custos:a	*
!	!	!	!	!	!	!LO:LB:g=original	!
*	*	*	*	*	*	*xywh-#178:1443,1597,4230,858	*
2A\	.	.	.	.	.	1a	.
1F	.	1f	.	.	.	.	.
.	.	.	.	2c/	in	2a\	.
=52-	=52-	=52-	=52-	=52-	=52-	=52-	=52-
*	*	*lig	*	*	*	*	*
1c	.	1g	.	2.e\	ex-	1.cc	.
.	.	.	.	4f\	.	.	.
1c	.	1e	.	2g\	-cel-	.	.
.	.	.	.	2g\	-sis	2g\	.
*	*	*Xlig	*	*	*	*	*
=53-	=53-	=53-	=53-	=53-	=53-	=53-	=53-
2F\	.	1f	.	2a\	in	4f\	.
.	.	.	.	.	.	4g\	.
4F\	in	.	.	1a	ex	4a\	.
4G\	[[ex]]	.	.	.	.	4b-\	.
4A\	.	1e	.	.	.	2.cc\	.
4B-\	.	.	.	.	.	.	.
2.c\	.	.	.	4g\	.	.	.
.	.	.	.	4f\	.	8b-\L	.
.	.	.	.	.	.	8a\J	.
=54-	=54-	=54-	=54-	=54-	=54-	=54-	=54-
.	.	1c	.	4e\	.	2g\	.
4B-\	.	.	.	4d\	.	.	.
2A\	ex-	.	.	4e\	.	1cc	.
.	.	.	.	4f\	.	.	.
*	*	*lig	*	*	*	*	*
1G	-cel-	1d	.	2.g\	.	.	.
!	!	!	!	!	!	!LO:N:acc=#	!
.	.	.	.	.	.	2bni\	.
.	.	.	.	4f\	.	.	.
*	*	*	*	*custos:e	*	*	*
=55-	=55-	=55-	=55-	=55-	=55-	=55-	=55-
!	!	!	!	!LO:LB:g=original	!	!	!
*	*	*	*	*xywh-#365:5988,2361,4250,677	*	*	*
2C/	-sis	1c	.	2e\	.	2cc\	.
1F	.	.	.	2f\	.	2.a\	in
*	*	*Xlig	*	*	*	*	*
*	*	*lig	*	*	*	*	*
.	.	1A	.	2c/	.	.	.
.	.	.	.	.	.	4g/	ex-
2D/	.	.	.	2d/	.	2f/	-cel-
=56-	=56-	=56-	=56-	=56-	=56-	=56-	=56-
2.C/	.	1c	.	1G	.	2e/	-sis
*	*	*	*	*	*	*	*ij
.	.	.	.	.	.	1cc	O-
4D/	.	.	.	.	.	.	.
*	*	*Xlig	*	*	*	*	*
2E/	.	1c	.	2g\	.	.	.
1F\	.	.	.	2f\	.	1a\	-ſan-
=57-	=57-	=57-	=57-	=57-	=57-	=57-	=57-
*	*	*lig	*	*	*	*	*
.	.	1A	.	2c/	.	.	.
1D	.	.	.	2d/	.	2f\	-na
.	.	1F	.	2.d/	.	2a\	.
2.BB-/	.	.	.	.	.	2.b-y\	in
.	.	.	.	4e\	.	.	.
*	*	*Xlig	*	*	*	*	*
*	*	*custos:B	*	*	*	*	*
=58-	=58-	=58-	=58-	=58-	=58-	=58-	=58-
!	!	!LO:LB:g=original	!	!	!	!	!
*	*	*xywh-#538:1528,3017,4178,910	*	*	*	*	*
.	.	1B-	.	2.f\	.	.	.
4C/	.	.	.	.	.	8a\L	.
.	.	.	.	.	.	8g\J	.
4D/	.	.	.	.	.	4f\	.
4E/	.	.	.	8e\L	.	4g\	.
.	.	.	.	8d\J	.	.	.
*	*	*lig	*	*	*	*	*
1F	.	1A	.	2c/	.	2.a\	ex-
.	.	.	.	2.f\	.	.	.
.	.	.	.	.	.	4b-\	.
=59-	=59-	=59-	=59-	=59-	=59-	=59-	=59-
1C	.	1G	.	.	.	1cc	-cel-
.	.	.	.	8e\L	.	.	.
.	.	.	.	8d\J	.	.	.
.	.	.	.	2e\	.	.	.
*	*	*Xlig	*	*	*	*	*
1Fl\	.	1Fl/	-sis	1fl\	.	1al\	-sis
*	*	*	*	*	*	*	*Xij
!LO:LB:g=original	!	!	!	!LO:LB:g=original	!	!LO:LB:g=original	!
=60||-	=60||-	=60||-	=60||-	=60||-	=60||-	=60||-	=60||-
*xywh-#723:6062,3066,4328,931	*	*	*	*xywh-#365:6002,3093,4339,910	*	*xywh-#178:1491,2285,4312,1110	*
!	!	!LO:TX:t=P:problem=niekompletne źródło	!	!	!	!	!
1.F	Be-	1fyy	Be-	1.a	Be-	1.cc	Be-
.	.	1f	-ne-	.	.	.	.
2F\	-ne-	.	.	2a\	-ne-	2cc\	-ne-
=61-	=61-	=61-	=61-	=61-	=61-	=61-	=61-
1B-	-dic-	1d	.	1f	-dic-	1b-	-dic-
2F\	-tus	1c	.	1f	-tus	2a\	-tus
2.F\	be-	.	.	.	.	2.a\	.
=62-	=62-	=62-	=62-	=62-	=62-	=62-	=62-
.	.	1f	.	2.c/	.	.	.
4G\	.	.	.	.	.	4b-\	.
4A\	.	.	.	.	.	2.cc\	.
4B-\	.	.	.	4d\	.	.	.
1c	.	1e	.	4e\	.	.	.
.	.	.	.	4f\	.	8b-\L	.
.	.	.	.	.	.	8a\J	.
.	.	.	.	2g\	.	4g\	.
.	.	.	.	.	.	4a\	.
=63-	=63-	=63-	=63-	=63-	=63-	=63-	=63-
2B-\	-ne-	0g	.	1d	.	0b-	.
2.G\	-dic-	.	.	.	.	.	.
.	.	.	.	2.d\	.	.	.
4A\	.	.	.	.	.	.	.
4B-\	.	.	.	.	.	.	.
4c\	.	.	.	4e\	.	.	.
=64-	=64-	=64-	=64-	=64-	=64-	=64-	=64-
1d	.	1f	.	4f\	.	2a\	.
.	.	.	.	4g\	.	.	.
.	.	.	.	1a	.	2.dd\	.
2A\	.	1e	.	.	.	.	.
.	.	.	.	.	.	4cc\	.
2c\	-ctus	.	.	2g\	.	2cc\	.
=65-	=65-	=65-	=65-	=65-	=65-	=65-	=65-
*	*ij	*	*	*	*	*	*
2G\	be-	0d	-dic-	2g\	.	2b-\	.
2F\	-ne-	.	.	2a\	.	2.cc\	.
1G	-dic-	.	.	1g	.	.	.
.	.	.	.	.	.	8b-\L	.
.	.	.	.	.	.	8a\J	.
.	.	.	.	.	.	2b-\	.
=66-	=66-	=66-	=66-	=66-	=66-	=66-	=66-
2C/	-tus	1c	-tus	2e\	.	2cc\	.
*	*Xij	*	*	*	*	*	*
2c\	q(ui)	.	.	1e	.	2g\	q(ui)
*	*	*lig	*	*	*	*	*
1c	ve-	1e	qui	.	.	1g	ve-
.	.	.	.	1c/	qui	.	.
=67-	=67-	=67-	=67-	=67-	=67-	=67-	=67-
1F	-nit	1f	.	.	.	1a	-nit
.	.	.	.	2.f\	ve-	.	.
*	*	*Xlig	*	*	*	*	*
!	!	!	!	!	!	!LO:TX:t=P:problem=korekta wysokości	!
2c\	in	1g	ve-	.	.	0cc	in
.	.	.	.	8e\L	.	.	.
.	.	.	.	8d\J	.	.	.
1c\	no-	.	.	4e\	.	.	.
.	.	.	.	4f\	.	.	.
=68-	=68-	=68-	=68-	=68-	=68-	=68-	=68-
!	!	!LO:PB:g=original	!	!	!	!	!
*	*	*xywh-#538:5940,407,4479,1073	*	*	*	*	*
.	.	1e	-nit	2g\	.	.	.
2A\	-mi-	.	.	2a\	-nit.	.	.
*custos:d	*	*	*	*	*	*	*
!LO:PB:g=original	!	!	!	!	!	!	!
*xywh-#724:1628,627,4279,956	*	*	*	*	*	*	*
1d	-ne	1f	in	1r	.	2a\	no-
.	.	.	.	.	.	2b-\	-mi-
*	*	*	*	*custos:g	*	*custos:cc	*
=69-	=69-	=69-	=69-	=69-	=69-	=69-	=69-
!	!	!	!	!LO:PB:g=original	!	!LO:LB:g=original	!
*	*	*	*	*xywh-#366:1331,703,4500,862	*	*xywh-#178:1416,3164,4298,1021	*
1.c	Do-	1e	no-	1g	in	2cc\	-ne
.	.	.	.	.	.	2g\	in
*	*	*lig	*	*	*	*	*
.	.	1d	-mi-	2f\	no-	2a\	no-
2B-\	-mi-	.	.	2g\	-(m)i-	2b-\	-(m)i-
=70-	=70-	=70-	=70-	=70-	=70-	=70-	=70-
2A\	-ni	1c	.	2e\	-(n)e	2cc\	-(n)e
*	*ij	*	*	*	*	*	*
2F\	in	.	.	2f\	in	2a\	.
*	*	*Xlig	*	*	*	*	*
2.F\	no-	1c	-ne	1.f	no-	2.a\	.
4F\	-mi-	.	.	.	.	4a\	.
=71-	=71-	=71-	=71-	=71-	=71-	=71-	=71-
*	*	*lig	*	*	*	*	*
1B-	-ne	1d	Do-	.	.	1b-	.
.	.	.	.	2f\	-mi-	.	.
1.F	Do-	1c	.	1f	-ne	1a	do-
*	*	*Xlig	*	*	*	*	*
=72-	=72-	=72-	=72-	=72-	=72-	=72-	=72-
*	*	*lig	*	*	*	*	*
.	.	1A	.	2c/	D(o-	1f	-mi-
2D/	-mi-	.	.	2d/	-mi)-	.	.
2C/	.	1c	.	2G/	-ni	2g\	-ni
1F\	-ni	.	.	2F/	in	2a\	in
*	*Xij	*Xlig	*	*	*	*	*
=73-	=73-	=73-	=73-	=73-	=73-	=73-	=73-
*	*	*lig	*	*	*	*	*
.	.	1A	.	2c/	no-	2.f\	no-
2.D/	no-	.	.	2d/	-(m)i-	.	.
.	.	.	.	.	.	4f\	-(m)i-
.	.	1F	.	2A/	-(n)e	1d	-(n)e
4D/	-(m)i-	.	.	.	.	.	.
2BB-/	-(n)e	.	.	1d/	D(o-	.	.
*	*	*Xlig	*	*	*	*	*
=74-	=74-	=74-	=74-	=74-	=74-	=74-	=74-
*	*	*lig	*	*	*	*	*
2.BB-/	do-	1B-	.	.	.	2.b-\	Do-
.	.	.	.	1d	-mi)-	.	.
4C/	.	.	.	.	.	8a\L	.
.	.	.	.	.	.	8g\J	.
4D/	.	1A	.	.	.	4f\	.
4E/	.	.	.	.	.	4g\	.
2F/	.	.	.	1c/	-ni	4a\	.
.	.	.	.	.	.	4f\	.
*	*	*Xlig	*	*	*	*	*
=75-	=75-	=75-	=75-	=75-	=75-	=75-	=75-
2C/	.	0G	-mi-	.	.	2e/	.
2BB-/	.	.	.	2d/	Do-	1f	.
1C	-mi-	.	.	1c	-(mi)-	.	.
.	.	.	.	.	.	2e/	-mi-
=76-	=76-	=76-	=76-	=76-	=76-	=76-	=76-
0Fl\	-ni	0Fl/	-ni.	0cl/	-ni.	0fl\	-ni.
==	==	==	==	==	==	==	==
*-	*-	*-	*-	*-	*-	*-	*-
!!!system-decoration: [s1,s2,s3,s4]
!!!RDF**kern: > = above
!!!RDF**kern: < = below
!!!RDF**kern: l = terminal long
!!!RDF**kern: i = editorial accidental
!!!ENC: Katarzyna Serwa
!!!END: 2022-03-23
!!!ENC: Mateusz Solarz
!!!END: 2022-03-21
!!!ENC-iiif: Jan Barakat
!!!END-iiif: 2022-09-01
